16x16/panel/tartube-update-tray.svg

<svg xmlns="http://www.w3.org/2000/svg" width="16" height="16" version="1.1">
 <defs>
  <style id="current-color-scheme" type="text/css">
   .ColorScheme-Text { color:#323a41; } .ColorScheme-Highlight { color:#4285f4; } .ColorScheme-NeutralText { color:#ff9800; } .ColorScheme-PositiveText { color:#4caf50; } .ColorScheme-NegativeText { color:#f44336; }
  </style>
 </defs>
 <path style="fill:currentColor" class="ColorScheme-Text" d="M 3.2382812 1 C 2.5592941 0.98377297 2.000341 1.5506607 2 2.2558594 L 2 13.744141 C 2.0009351 14.710449 3.0079696 15.314236 3.8144531 14.832031 L 13.394531 9.0878906 C 14.200261 8.6038956 14.200261 7.3961044 13.394531 6.9121094 L 3.8144531 1.1699219 C 3.6391382 1.064057 3.4410155 1.0056275 3.2382812 1 z M 5 5.3769531 L 9.375 8 L 5 10.623047 L 5 5.3769531 z M 12.619141 11.001953 A 2.5 2.5 0 0 0 11.25 11.333984 A 2.5 2.5 0 0 0 10.222656 14.525391 L 11.09375 14.023438 A 1.5 1.5 0 0 1 11.75 12.201172 A 1.5 1.5 0 0 1 12.226562 12.027344 L 12.808594 13.033203 L 13.65625 12.544922 L 14.529297 12.039062 A 2.5 2.5 0 0 0 12.619141 11.001953 z M 14.777344 12.474609 L 13.90625 12.976562 A 1.5 1.5 0 0 1 13.25 14.798828 A 1.5 1.5 0 0 1 12.773438 14.972656 L 12.191406 13.966797 L 11.34375 14.455078 L 10.470703 14.960938 A 2.5 2.5 0 0 0 13.75 15.666016 A 2.5 2.5 0 0 0 14.777344 12.474609 z"/>
</svg>

<svg xmlns="http://www.w3.org/2000/svg" width="16" height="16"><defs><style id="current-color-scheme" type="text/css"></style></defs><path style="fill:currentColor;color:#323a41" d="M3.238 1C2.56.984 2 1.55 2 2.256v11.488c0 .966 1.008 1.57 1.814 1.088l9.58-5.744c.806-.484.806-1.692 0-2.176L3.815 1.17A1.177 1.177 0 0 0 3.238 1zM5 5.377 9.375 8 5 10.623V5.377zm7.62 5.625a2.5 2.5 0 0 0-1.37.332 2.5 2.5 0 0 0-1.027 3.191l.87-.502a1.5 1.5 0 0 1 .657-1.822 1.5 1.5 0 0 1 .477-.174l.582 1.006.847-.488.873-.506a2.5 2.5 0 0 0-1.91-1.037zm2.157 1.473-.87.502a1.5 1.5 0 0 1-.657 1.822 1.5 1.5 0 0 1-.477.174l-.582-1.006-.847.488-.873.506a2.5 2.5 0 0 0 3.279.705 2.5 2.5 0 0 0 1.027-3.191z"/></svg>
